media/img/products/vpn/resource-center/icons/linux_icon.svg

<svg width="45" height="53" viewBox="0 0 45 53" fill="none" xmlns="http://www.w3.org/2000/svg">
<path d="M21.7975 13.3795C21.7975 13.5514 21.6256 13.5514 21.6256 13.5514H21.4537C21.2818 13.5514 21.2818 13.3795 21.1099 13.2076C21.1099 13.2076 20.9379 13.0357 20.9379 12.8637C20.9379 12.6918 20.9379 12.6918 21.1099 12.6918L21.4537 12.8637C21.6256 13.0357 21.7975 13.2076 21.7975 13.3795ZM18.7031 11.6603C18.7031 10.8008 18.3592 10.285 17.8435 10.285C17.8435 10.285 17.8435 10.457 17.6716 10.457V10.8008H18.1873C18.1873 11.1446 18.3592 11.3165 18.3592 11.6603H18.7031ZM24.72 10.8008C25.0639 10.8008 25.2358 11.1446 25.4077 11.6603H25.7515C25.5796 11.4884 25.5796 11.3165 25.5796 11.1446C25.5796 10.9727 25.5796 10.8008 25.4077 10.6289C25.2358 10.457 25.0639 10.285 24.892 10.285C24.892 10.285 24.72 10.457 24.5481 10.457C24.5481 10.6289 24.72 10.6289 24.72 10.8008ZM19.5626 13.5514C19.3907 13.5514 19.3907 13.5514 19.3907 13.3795C19.3907 13.2076 19.3907 13.0357 19.5626 12.8637C19.9065 12.8637 20.0784 12.6918 20.0784 12.6918C20.2503 12.6918 20.2503 12.8637 20.2503 12.8637C20.2503 13.0357 20.0784 13.2076 19.7346 13.5514H19.5626ZM17.6716 13.3795C16.9839 13.0357 16.812 12.5199 16.812 11.6603C16.812 11.1446 16.812 10.8008 17.1558 10.457C17.3278 10.1131 17.6716 9.94121 18.0154 9.94121C18.3592 9.94121 18.5312 10.1131 18.875 10.457C19.0469 10.9727 19.2188 11.4884 19.2188 12.0042V12.1761V12.348H19.3907V12.1761C19.5626 12.1761 19.5626 11.8323 19.5626 11.1446C19.5626 10.6289 19.5626 10.1131 19.2188 9.59739C18.875 9.08164 18.5312 8.73782 17.8435 8.73782C17.3278 8.73782 16.812 9.08164 16.6401 9.59739C16.2963 10.285 16.2275 10.8008 16.2275 11.6603C16.2275 12.348 16.4682 13.0357 17.1558 13.7233C17.3278 13.5514 17.4997 13.5514 17.6716 13.3795ZM39.1608 37.6193C39.3327 37.6193 39.3327 37.5505 39.3327 37.3958C39.3327 37.0176 39.1608 36.5706 38.6451 36.0721C38.1293 35.5563 37.2697 35.2297 36.2383 35.0922C36.0663 35.075 35.8944 35.075 35.8944 35.075C35.7225 35.0406 35.7225 35.0406 35.5506 35.0406C35.3787 35.0234 35.0349 34.989 34.863 34.9546C35.3787 33.3559 35.5506 31.9462 35.5506 30.7084C35.5506 28.9892 35.2068 27.7858 34.5191 26.7544C33.8315 25.7229 33.1438 25.2071 32.2842 25.0352C32.1123 25.2071 32.1123 25.2071 32.1123 25.3791C32.9719 25.7229 33.8315 26.4105 34.3472 27.442C34.863 28.6454 35.0349 29.6769 35.0349 30.8803C35.0349 31.843 34.863 33.2699 34.1753 35.0922C33.4876 35.3672 32.8 36.0033 32.2842 37.0004C32.2842 37.1551 32.2842 37.2411 32.4562 37.2411C32.4562 37.2411 32.6281 37.0864 32.8 36.7941C33.1438 36.5019 33.3157 36.2096 33.6596 35.9174C34.1753 35.6251 34.5191 35.4704 35.0349 35.4704C35.8944 35.4704 36.754 35.5907 37.2697 35.8314C37.9574 36.0549 38.3012 36.2956 38.4731 36.5706C38.6451 36.8285 38.817 37.0692 38.9889 37.2927C38.9889 37.5162 39.1608 37.6193 39.1608 37.6193ZM23.3447 12.6918C23.1728 12.5199 23.1728 12.1761 23.1728 11.8323C23.1728 11.1446 23.1728 10.8008 23.5167 10.285C23.8605 9.94121 24.2043 9.7693 24.5481 9.7693C25.0639 9.7693 25.4077 10.1131 25.7515 10.457C25.9234 10.9727 26.0954 11.3165 26.0954 11.8323C26.0954 12.6918 25.7515 13.2076 25.0639 13.3795C25.0639 13.3795 25.2358 13.5514 25.4077 13.5514C25.7515 13.5514 25.9234 13.7233 26.2673 13.8952C26.4392 12.8637 26.6111 12.1761 26.6111 11.3165C26.6111 10.285 26.4392 9.59739 26.0954 9.08164C25.5796 8.5659 25.0639 8.39399 24.3762 8.39399C23.8605 8.39399 23.3447 8.5659 22.829 8.90973C22.4852 9.42547 22.3133 9.7693 22.3133 10.285C22.3133 11.1446 22.4852 11.8323 22.829 12.5199C23.0009 12.5199 23.1728 12.6918 23.3447 12.6918ZM25.4077 15.4424C23.1728 16.9897 21.4537 17.6773 20.0784 17.6773C18.875 17.6773 17.6716 17.1616 16.6401 16.302C16.812 16.6458 16.9839 16.9897 17.1558 17.1616L18.1873 18.1931C18.875 18.8807 19.7346 19.2245 20.5941 19.2245C21.7975 19.2245 23.1728 18.5369 24.892 17.3335L26.4392 16.302C26.783 15.9582 27.1268 15.6144 27.1268 15.0986C27.1268 14.9267 27.1268 14.7548 26.9549 14.7548C26.783 14.411 25.9234 13.8952 24.2043 13.3795C22.6571 12.6918 21.4537 12.348 20.766 12.348C20.2503 12.348 19.3907 12.6918 18.1873 13.3795C17.1558 14.0671 16.4682 14.7548 16.4682 15.4424C16.4682 15.4424 16.6401 15.6144 16.812 15.9582C17.8435 16.8178 18.875 17.3335 19.9065 17.3335C21.2818 17.3335 23.0009 16.6458 25.2358 14.9267V15.2705C25.4077 15.2705 25.4077 15.4424 25.4077 15.4424ZM29.3617 50.169C30.0494 51.4618 31.2528 52.1116 32.6281 52.1116C32.9719 52.1116 33.3157 52.0601 33.6596 51.9569C34.0034 51.8881 34.3472 51.7678 34.5191 51.6303C34.691 51.5099 34.863 51.3896 35.0349 51.2521C35.3787 51.1317 35.3787 51.0458 35.5506 50.9598L38.4731 48.4327C39.1608 47.8843 39.8484 47.4046 40.708 46.9886C41.3957 46.576 42.0833 46.3009 42.4272 46.1462C42.9429 46.0087 43.2867 45.8024 43.6305 45.5273C43.8025 45.2695 43.9744 44.9428 43.9744 44.5302C43.9744 44.0317 43.6305 43.6535 43.2867 43.3784C42.9429 43.1034 42.5991 42.9142 42.2552 42.7939C41.9114 42.6736 41.5676 42.3985 41.0518 41.9343C40.708 41.4874 40.3642 40.8685 40.1923 40.0605L40.0204 39.0634C39.8484 38.5992 39.8484 38.2554 39.6765 38.0663C39.6765 38.0147 39.6765 37.9975 39.5046 37.9975C39.3327 37.9975 38.9889 38.1522 38.817 38.4445C38.4731 38.7367 38.1293 39.0634 37.7855 39.4072C37.6136 39.751 37.0978 40.0605 36.754 40.3527C36.2383 40.645 35.7225 40.7997 35.3787 40.7997C34.0034 40.7997 33.3157 40.4215 32.8 39.6823C32.4562 39.1321 32.2842 38.4961 32.1123 37.774C31.7685 37.4818 31.5966 37.3271 31.2528 37.3271C30.3932 37.3271 30.0494 38.221 30.0494 40.0261V40.5934V42.5876V44.1176V44.8569V45.3726C30.0494 45.5273 29.8775 45.8712 29.8775 46.4041C29.7055 46.937 29.7055 47.5422 29.7055 48.2264L29.3617 50.1346V50.1638V50.169ZM4.43424 49.2544C6.03304 49.4882 7.87251 49.9885 9.95267 50.7518C12.0328 51.5082 13.305 51.9036 13.7692 51.9036C14.9725 51.9036 15.9696 51.3707 16.7948 50.3409C16.9667 50.0074 16.9667 49.6154 16.9667 49.165C16.9667 47.5404 15.9868 45.4861 14.027 42.9933L12.858 41.4289C12.6173 41.1023 12.3251 40.6037 11.9469 39.9333C11.5858 39.2628 11.2592 38.7471 11.0013 38.386C10.7779 37.9906 10.4168 37.5952 9.95267 37.1998C9.50569 36.8044 8.98995 36.5466 8.42264 36.409C7.7006 36.5466 7.20205 36.7872 6.96137 37.1139C6.72069 37.4405 6.58316 37.8015 6.54878 38.1797C6.4972 38.5408 6.39405 38.7814 6.22214 38.9018C6.05023 39.0049 5.75797 39.0909 5.36257 39.1768C5.27662 39.1768 5.12189 39.1768 4.89841 39.194H4.43424C3.5231 39.194 2.90421 39.2972 2.57757 39.4691C2.14779 39.9676 1.9243 40.535 1.9243 41.1367C1.9243 41.4117 1.99307 41.8759 2.1306 42.5292C2.26813 43.1652 2.33689 43.681 2.33689 44.042C2.33689 44.7468 2.1306 45.4517 1.70081 46.1565C1.27103 46.8958 1.04754 47.4459 1.04754 47.8379C1.21945 48.5049 2.35408 48.9742 4.43424 49.2493V49.2544ZM10.159 33.6223C10.159 32.4361 10.4684 31.1296 11.1045 29.5823C11.7234 28.0351 12.3423 27.0036 12.944 26.316C12.9096 26.1441 12.8236 26.1441 12.6861 26.1441L12.5142 25.9722C12.0156 26.4879 11.4139 27.6913 10.6919 29.4104C9.96986 30.9577 9.59165 32.3845 9.59165 33.4332C9.59165 34.2068 9.78075 34.8773 10.1246 35.4618C10.5028 36.0291 11.4139 36.8543 12.858 37.903L14.6803 39.0892C16.6229 40.7739 17.6544 41.9429 17.6544 42.6306C17.6544 42.9916 17.4825 43.3526 16.9667 43.748C16.6229 44.1606 16.1587 44.3669 15.7633 44.3669C15.729 44.3669 15.7118 44.4013 15.7118 44.4873C15.7118 44.5044 15.8837 44.8483 16.2447 45.5187C16.9667 46.4986 18.514 46.98 20.5769 46.98C24.359 46.98 27.2816 45.4328 29.5164 42.3383C29.5164 41.4788 29.5164 40.9458 29.3445 40.7224V40.0863C29.3445 38.9688 29.5164 38.1265 29.8603 37.5763C30.2041 37.0262 30.5479 36.7683 31.0637 36.7683C31.4075 36.7683 31.7513 36.8887 32.0951 37.1465C32.2671 35.8228 32.2671 34.671 32.2671 33.6395C32.2671 32.0751 32.2671 30.7857 31.9232 29.5823C31.7513 28.5509 31.4075 27.6913 31.0637 27.0036C30.7198 26.4879 30.376 25.9722 30.0322 25.4564C29.6884 24.9407 29.5164 24.4249 29.1726 23.9092C29.0007 23.2215 28.8288 22.7058 28.8288 21.8462C28.313 20.9867 27.9692 20.1271 27.4535 19.2675C27.1096 18.408 26.7658 17.5484 26.422 16.8607L24.8748 18.0641C23.1556 19.2675 21.7803 19.7833 20.5769 19.7833C19.5454 19.7833 18.6859 19.6114 18.1701 18.9237L17.1387 18.0641C17.1387 18.5799 16.9667 19.2675 16.6229 19.9552L15.5399 22.0181C15.0585 23.2215 14.8006 23.9092 14.7491 24.4249C14.6803 24.7688 14.6287 25.1126 14.5943 25.1126L13.305 27.6913C11.9125 30.27 11.2076 32.6596 11.2076 34.6366C11.2076 35.032 11.242 35.4446 11.3108 35.8572C10.5372 35.3243 10.159 34.585 10.159 33.6223ZM22.468 49.8853C20.2331 49.8853 18.514 50.1879 17.3106 50.7879V50.7363C16.451 51.7678 15.4883 52.3007 14.1474 52.3007C13.305 52.3007 11.9812 51.9741 10.1933 51.3208C8.38825 50.7019 6.78946 50.2275 5.39696 49.9146C5.25942 49.875 4.94998 49.8166 4.45143 49.7375C3.97007 49.6601 3.5231 49.5811 3.1277 49.502C2.76668 49.4246 2.35408 49.3077 1.90711 49.1496C1.47732 49.0137 1.1335 48.8367 0.875627 48.6218C0.638386 48.4052 0.521484 48.1611 0.521484 47.8877C0.521484 47.6127 0.579935 47.3187 0.696836 47.0058C0.806861 46.8167 0.927201 46.6276 1.04754 46.4557C1.16788 46.2666 1.27103 46.0947 1.33979 45.9227C1.44294 45.768 1.51171 45.6133 1.58047 45.4414C1.64924 45.2867 1.718 45.1319 1.75239 44.9428C1.78677 44.7709 1.82115 44.599 1.82115 44.4271C1.82115 44.2552 1.75239 43.7394 1.61486 42.8283C1.47732 41.9343 1.40856 41.367 1.40856 41.1263C1.40856 40.3699 1.58047 39.7682 1.95868 39.3384C2.33689 38.9087 2.69791 38.6852 3.07612 38.6852H5.05313C5.20785 38.6852 5.44853 38.5992 5.80955 38.3929C5.92989 38.1179 6.03304 37.8944 6.1018 37.6881C6.18776 37.4818 6.22214 37.3271 6.25652 37.2583C6.29091 37.1551 6.32529 37.052 6.35967 36.966C6.42844 36.8457 6.51439 36.7082 6.63473 36.5706C6.4972 36.3987 6.42844 36.1752 6.42844 35.9002C6.42844 35.7111 6.42844 35.5392 6.46282 35.436C6.46282 34.8171 6.75507 33.9404 7.37396 32.7885L7.97566 31.7055C8.47421 30.7771 8.85242 30.0895 9.12748 29.4018C9.41973 28.7142 9.72918 27.6827 10.073 26.3074C10.3481 25.104 11.0013 23.9006 12.0328 22.6972L13.3222 21.15C14.2161 20.1185 14.8006 19.2589 15.1273 18.5713C15.4539 17.8836 15.6258 17.0241 15.6258 16.3364C15.6258 15.9926 15.5399 14.9611 15.3508 13.242C15.1788 11.5228 15.0929 9.80368 15.0929 8.25646C15.0929 7.05306 15.196 6.19349 15.4195 5.33393C15.643 4.47436 16.0384 3.61479 16.6229 2.92714C17.1387 2.23948 17.8263 1.55183 18.8578 1.208C19.8893 0.864174 21.0927 0.692261 22.468 0.692261C22.9837 0.692261 23.4995 0.692261 24.0152 0.864174C24.5309 0.864174 25.2186 1.03609 26.0782 1.37992C26.7658 1.72374 27.4535 2.06757 27.9692 2.58331C28.6569 3.09905 29.1726 3.95862 29.6884 4.81819C30.0322 5.84967 30.376 6.88115 30.5479 8.25646C30.7198 9.11603 30.7198 9.97559 30.8917 11.179C30.8917 12.2105 31.0637 12.8981 31.0637 13.4139C31.2356 13.9296 31.2356 14.6173 31.4075 15.4768C31.5794 16.1645 31.7513 16.8521 32.0951 17.3679C32.439 18.0555 32.7828 18.7432 33.2985 19.4308C33.8143 20.2904 34.5019 21.15 35.1896 22.1815C36.7368 23.9006 37.9402 25.7916 38.6279 27.6827C39.4874 29.4018 40.0032 31.6367 40.0032 34.0263C40.0032 35.2125 39.8313 36.3643 39.4874 37.4818C39.8313 37.4818 40.0032 37.6193 40.1751 37.86C40.347 38.1007 40.5189 38.6164 40.6908 39.4244L40.8627 40.6966C41.0346 41.0748 41.2066 41.4358 41.7223 41.7452C42.0661 42.0547 42.41 42.3125 42.9257 42.5188C43.2695 42.6908 43.7853 42.9314 44.1291 43.2409C44.4729 43.5847 44.6448 43.9457 44.6448 44.3239C44.6448 44.9084 44.4729 45.3382 44.1291 45.6477C43.7853 45.9915 43.4414 46.2322 42.9257 46.3869C42.5819 46.5588 41.8942 46.9026 40.8627 47.3874C40.0032 47.8963 39.1436 48.5135 38.284 49.2441L36.5649 50.7071C35.8772 51.3776 35.1896 51.8589 34.6738 52.1512C34.1581 52.4606 33.4705 52.6153 32.7828 52.6153L31.5794 52.4778C30.2041 52.1168 29.3445 51.4291 28.8288 50.3805C26.0782 50.0469 23.8433 49.8819 22.468 49.8819" fill="black"/>
</svg>

<svg width="45" height="53" fill="none" xmlns="http://www.w3.org/2000/svg"><path d="M21.797 13.38c0 .171-.171.171-.171.171h-.172c-.172 0-.172-.171-.344-.343 0 0-.172-.172-.172-.344s0-.172.172-.172l.344.172c.172.172.343.344.343.515Zm-3.094-1.72c0-.86-.344-1.375-.86-1.375 0 0 0 .172-.171.172v.344h.515c0 .344.172.515.172.86h.344Zm6.017-.86c.344 0 .516.345.688.86h.343c-.171-.172-.171-.344-.171-.515 0-.172 0-.344-.172-.516-.172-.172-.344-.344-.516-.344 0 0-.172.172-.344.172 0 .172.172.172.172.344Zm-5.157 2.751c-.172 0-.172 0-.172-.171 0-.172 0-.344.172-.516.344 0 .515-.172.515-.172.172 0 .172.172.172.172 0 .172-.172.344-.515.687h-.172Zm-1.891-.171c-.688-.344-.86-.86-.86-1.72 0-.515 0-.86.344-1.203a.945.945 0 0 1 .86-.516c.343 0 .515.172.859.516.172.516.344 1.031.344 1.547v.344h.172v-.172c.172 0 .172-.344.172-1.031 0-.516 0-1.032-.344-1.548-.344-.515-.688-.86-1.376-.86-.515 0-1.031.345-1.203.86-.344.688-.413 1.204-.413 2.063 0 .688.241 1.376.929 2.063.172-.172.344-.172.516-.344ZM39.16 37.62c.172 0 .172-.07.172-.224 0-.378-.172-.825-.688-1.324-.516-.516-1.375-.842-2.407-.98-.172-.017-.344-.017-.344-.017-.172-.034-.172-.034-.343-.034a9.382 9.382 0 0 1-.688-.086 13.67 13.67 0 0 0 .688-4.247c0-1.719-.344-2.922-1.032-3.954-.688-1.031-1.375-1.547-2.235-1.719-.172.172-.172.172-.172.344a4.302 4.302 0 0 1 2.235 2.063c.516 1.203.688 2.235.688 3.438 0 .963-.172 2.39-.86 4.212-.687.275-1.375.911-1.89 1.908 0 .155 0 .241.171.241 0 0 .172-.155.344-.447.344-.292.516-.584.86-.877.515-.292.86-.447 1.375-.447.86 0 1.719.12 2.235.361.687.224 1.031.465 1.203.74.172.258.344.498.516.722 0 .223.172.326.172.326ZM23.345 12.691c-.172-.172-.172-.516-.172-.86 0-.687 0-1.031.344-1.547.343-.344.687-.516 1.031-.516.516 0 .86.344 1.204.688.171.516.343.86.343 1.375 0 .86-.343 1.376-1.031 1.547 0 0 .172.172.344.172.343 0 .515.172.86.344.171-1.031.343-1.719.343-2.579 0-1.031-.172-1.719-.516-2.234-.515-.516-1.031-.688-1.719-.688-.516 0-1.031.172-1.547.516-.344.515-.516.86-.516 1.375 0 .86.172 1.547.516 2.235.172 0 .344.172.516.172Zm2.063 2.75c-2.235 1.548-3.954 2.235-5.33 2.235-1.203 0-2.406-.515-3.438-1.375.172.344.344.688.516.86l1.031 1.031c.688.688 1.548 1.031 2.407 1.031 1.203 0 2.579-.687 4.298-1.89l1.547-1.032c.344-.344.688-.688.688-1.203 0-.172 0-.344-.172-.344-.172-.344-1.032-.86-2.75-1.376-1.548-.687-2.751-1.031-3.439-1.031-.516 0-1.375.344-2.579 1.031-1.031.688-1.719 1.376-1.719 2.063 0 0 .172.172.344.516 1.031.86 2.063 1.376 3.095 1.376 1.375 0 3.094-.688 5.329-2.407v.344c.172 0 .172.171.172.171Zm3.954 34.727c.687 1.293 1.89 1.943 3.266 1.943.344 0 .688-.052 1.032-.155.343-.069.687-.19.86-.327.171-.12.343-.24.515-.378.344-.12.344-.206.516-.292l2.922-2.527c.688-.549 1.375-1.028 2.235-1.444.688-.413 1.375-.688 1.72-.843.515-.137.859-.344 1.203-.619.172-.258.343-.584.343-.997 0-.498-.343-.877-.687-1.152a3.497 3.497 0 0 0-1.032-.584c-.344-.12-.687-.395-1.203-.86a4.636 4.636 0 0 1-.86-1.873l-.172-.998c-.172-.464-.172-.808-.344-.997 0-.051 0-.069-.171-.069-.172 0-.516.155-.688.447a17.56 17.56 0 0 0-1.032.963c-.171.344-.687.654-1.031.946-.516.292-1.032.447-1.375.447-1.376 0-2.063-.378-2.579-1.118-.344-.55-.516-1.186-.688-1.908-.344-.292-.515-.447-.86-.447-.859 0-1.203.894-1.203 2.7v5.346c0 .154-.171.498-.171 1.031-.172.533-.172 1.138-.172 1.822l-.344 1.909v.034Zm-24.928-.915c1.599.234 3.439.735 5.519 1.498 2.08.756 3.352 1.152 3.816 1.152 1.204 0 2.2-.533 3.026-1.563.172-.334.172-.726.172-1.176 0-1.625-.98-3.679-2.94-6.172l-1.169-1.564c-.24-.327-.533-.825-.911-1.496A14.713 14.713 0 0 0 11 38.386c-.223-.395-.584-.79-1.048-1.186a3.532 3.532 0 0 0-1.53-.791c-.722.138-1.221.378-1.462.705-.24.327-.378.688-.412 1.066-.052.36-.155.601-.327.722-.172.103-.464.189-.86.275-.085 0-.24 0-.464.017h-.464c-.91 0-1.53.103-1.856.275-.43.499-.654 1.066-.654 1.668 0 .275.07.739.207 1.392.137.636.206 1.152.206 1.513 0 .705-.206 1.41-.636 2.114-.43.74-.653 1.29-.653 1.682.171.667 1.306 1.136 3.386 1.411v.005Zm5.725-15.632c0-1.186.31-2.492.945-4.04.62-1.547 1.238-2.578 1.84-3.266-.034-.172-.12-.172-.258-.172l-.172-.172c-.498.516-1.1 1.72-1.822 3.438-.722 1.548-1.1 2.975-1.1 4.023 0 .774.189 1.444.533 2.029.378.567 1.289 1.392 2.733 2.441l1.822 1.186c1.943 1.685 2.974 2.854 2.974 3.542 0 .36-.171.722-.687 1.117-.344.413-.808.619-1.204.619-.034 0-.051.034-.051.12 0 .017.172.361.533 1.032.722.98 2.269 1.461 4.332 1.461 3.782 0 6.705-1.547 8.94-4.642 0-.86 0-1.392-.172-1.616v-.636c0-1.117.171-1.96.515-2.51.344-.55.688-.808 1.204-.808.343 0 .687.12 1.031.379.172-1.324.172-2.476.172-3.508 0-1.564 0-2.853-.344-4.057a9.063 9.063 0 0 0-.86-2.578l-1.03-1.548c-.345-.515-.517-1.031-.86-1.547-.172-.688-.344-1.203-.344-2.063-.516-.86-.86-1.719-1.376-2.579-.343-.859-.687-1.719-1.031-2.406l-1.547 1.203c-1.72 1.203-3.095 1.72-4.298 1.72-1.032 0-1.891-.173-2.407-.86l-1.031-.86c0 .516-.172 1.203-.516 1.891l-1.083 2.063c-.481 1.203-.74 1.891-.79 2.407-.07.344-.121.688-.156.688l-1.289 2.578c-1.393 2.579-2.097 4.969-2.097 6.946 0 .395.034.808.103 1.22-.774-.533-1.152-1.272-1.152-2.235Zm12.309 16.263c-2.235 0-3.954.303-5.157.903v-.052c-.86 1.032-1.823 1.565-3.164 1.565-.842 0-2.166-.327-3.954-.98-1.805-.62-3.404-1.093-4.796-1.406-.138-.04-.447-.098-.946-.178a35.94 35.94 0 0 1-1.323-.235 9.992 9.992 0 0 1-1.22-.352c-.43-.136-.774-.313-1.032-.528-.238-.217-.355-.46-.355-.734 0-.275.059-.57.176-.882.11-.19.23-.378.35-.55.12-.19.224-.361.293-.533.103-.155.172-.31.24-.482.07-.154.138-.31.172-.498.035-.172.07-.344.07-.516 0-.172-.07-.688-.207-1.599-.138-.894-.206-1.461-.206-1.702 0-.756.171-1.358.55-1.788.378-.43.739-.653 1.117-.653h1.977c.155 0 .396-.086.757-.292.12-.275.223-.499.292-.705.086-.206.12-.36.155-.43.034-.103.068-.206.103-.292.068-.12.154-.258.275-.395-.138-.172-.207-.396-.207-.67 0-.19 0-.362.035-.465 0-.619.292-1.496.911-2.648l.602-1.082c.498-.929.876-1.616 1.151-2.304.293-.688.602-1.72.946-3.095.275-1.203.928-2.406 1.96-3.61l1.29-1.547c.893-1.031 1.478-1.891 1.804-2.579a5.54 5.54 0 0 0 .499-2.235c0-.343-.086-1.375-.275-3.094a50.994 50.994 0 0 1-.258-4.986c0-1.203.103-2.063.326-2.922.224-.86.62-1.72 1.204-2.407.516-.688 1.203-1.375 2.235-1.719 1.031-.344 2.235-.516 3.61-.516.516 0 1.032 0 1.547.172.516 0 1.204.172 2.063.516.688.344 1.375.688 1.891 1.203.688.516 1.204 1.376 1.72 2.235.343 1.032.687 2.063.859 3.438.172.86.172 1.72.344 2.923 0 1.031.172 1.72.172 2.235.172.516.172 1.203.343 2.063.172.688.344 1.375.688 1.89.344.688.688 1.376 1.203 2.064.516.86 1.204 1.719 1.892 2.75 1.547 1.72 2.75 3.61 3.438 5.502.86 1.719 1.375 3.954 1.375 6.343 0 1.186-.172 2.338-.516 3.456.344 0 .516.137.688.378.172.24.344.756.516 1.564l.172 1.273c.172.378.344.739.86 1.048.343.31.687.568 1.203.774.343.172.86.412 1.203.722.344.344.516.705.516 1.083 0 .584-.172 1.014-.516 1.324-.344.343-.688.584-1.203.739-.344.172-1.032.516-2.063 1a18.73 18.73 0 0 0-2.579 1.857l-1.72 1.463a9.526 9.526 0 0 1-1.89 1.444c-.516.31-1.203.464-1.891.464l-1.204-.137c-1.375-.361-2.235-1.049-2.75-2.098-2.75-.333-4.986-.498-6.361-.498" fill="#000"/></svg>
